epam-assets/icon-sources/18/Stack_overflow.svg

<svg width="18" height="18" viewBox="0 0 18 18" fill="none" xmlns="http://www.w3.org/2000/svg">
<g id="18/Stack_overflow">
<g id="icon">
<path d="M13.0294 15.1663V11.1478H14.3724V16.5H2.25V11.1478H3.59305V15.1663H13.0294Z" fill="#6C6F80"/>
<path d="M5.07533 10.7667L11.6685 12.1351L11.9476 10.8187L5.35441 9.45033L5.07533 10.7667ZM5.94745 7.64894L12.0523 10.4723L12.6104 9.25977L6.5056 6.41916L5.94745 7.64894ZM7.63935 4.66974L12.8197 8.94799L13.6744 7.92608L8.49405 3.6478L7.63935 4.66974ZM10.9882 1.5L9.90688 2.29676L13.9185 7.66627L15 6.8695L10.9882 1.5ZM4.93579 13.8152H11.6685V12.4815H4.93579V13.8152Z" fill="#6C6F80"/>
</g>
</g>
</svg>

<svg xmlns="http://www.w3.org/2000/svg" width="18" height="18" fill="none" viewBox="0 0 18 18">
  <path fill="#6C6F80" d="M13.03 15.166v-4.018h1.342V16.5H2.25v-5.352h1.343v4.018h9.436Z"/>
  <path fill="#6C6F80" d="m5.075 10.767 6.593 1.368.28-1.316L5.354 9.45l-.279 1.317Zm.872-3.118 6.105 2.823.558-1.212-6.104-2.84-.559 1.229Zm1.692-2.98 5.18 4.279.855-1.022-5.18-4.278-.855 1.022ZM10.99 1.5l-1.082.797 4.011 5.37L15 6.87 10.988 1.5ZM4.935 13.815h6.732v-1.333H4.936v1.333Z"/>
</svg>
